!!!!SEGMENT: pl-cz--iii-591--001_rygall-ignacy--dum-natus-esset-recitativo-allegro-moderato.krn
!!!cenid: 17xx:1114
!!!COM: Rygall, Ignacy
!!!COM-rismID: pe30110281
!!!CDT: <1750->1799
!!!CNT:
!!!OPR: Dum natus esset
!!!OTL: Recitativo - Allegro moderato
!!!OMV: 001
!!!PDT: 1775
!!!AGN:
!!!SMS-siglum: PL-CZ
!!!SMS-shelfmark: III-591
!!!SMS-shelfwork: 001-001 M
!!!SMS-variant:
!!!SMS-altvar:
!!!NIFC-rismSourceID: 300001123
!!!NIFC-rismChildID: 300001123
!!!NIFC-islandoraID: pl-cz:39414
!!!URL-pdf-islandora: https://repozytorium.nifc.pl/islandora/object/pl-cz%3A39414/datastream/PDF/view
!!!URL-scan: https://polish.musicsources.pl/pl/lokalizacje/galeria/rekopisy/6961/1 @EN{Scan on Polish Music Sources Website} @PL{Skany w portalu Dziedzictwo Muzyki Polskiej w otwartym dostępie}
!!!ONB-nifc: UWAGA: części Dum natus esset: Recitativo – Allegro moderato, Cum sis ipse (Andantino), Aria – Cape panis angelorum, Coro – Ergo sine fine
!!!AIN: 6 empty 1 violn 2 vox
!!!key: D
**kern	**dynam	**kern	**dynam	**kern	**dynam	**kern	**kern	**kern	**kern	**text	**text	**kern	**dynam	**kern	**dynam
*part9	*part9	*part8	*part8	*part7	*part7	*part6	*part5	*part4	*part3	*part3	*part3	*part2	*part2	*part1	*part1
*staff9	*	*staff8	*	*staff7	*	*staff6	*staff5	*staff4	*staff3	*staff3	*staff3	*staff2	*	*staff1	*
*Iempty	*	*Ivioln	*	*Iempty	*	*Ivox	*Ivox	*Iempty	*Iempty	*	*	*Iempty	*	*Iempty	*
*I"Baſso	*	*I"Violino Secondo	*	*I"Violino Primo !	*	*I"Coro	*I"Canto 2do	*I"Coro Canto 1mo	*I"Baſso Solo	*	*	*I"Cornu 2do in D:	*	*I"Cornu 1mo in D	*
*I'Vc.	*	*I'Vn II	*	*I'Vn I	*	*I'B.	*I'C. II	*I'C. I	*I'B. Solo	*	*	*I'Tr-ba in D	*	*I'C. I in D	*
*ICstr	*	*ICstr	*	*ICstr	*	*ICvox	*ICvox	*ICvox	*ICvox	*	*	*ICbras	*	*ICbras	*
*clefF4	*	*clefG2	*	*clefG2	*	*clefF4	*clefC1	*clefC1	*clefF4	*	*	*clefG2	*	*clefG2	*
*	*	*	*	*	*	*	*	*	*	*	*	*ITrd-1c-2	*	*ITrd-1c-2	*
*k[f#c#]	*	*k[f#c#]	*	*k[f#c#]	*	*k[f#c#]	*k[f#c#]	*k[f#c#]	*k[f#c#]	*	*	*k[f#c#]	*	*k[f#c#]	*
*D:	*	*D:	*	*D:	*	*D:	*D:	*D:	*D:	*	*	*D:	*	*D:	*
*M4/4	*	*M4/4	*	*M4/4	*	*M4/4	*M4/4	*M4/4	*M4/4	*	*	*M4/4	*	*M4/4	*
*met(c)	*	*met(c)	*	*met(c)	*	*met(c)	*met(c)	*met(c)	*met(c)	*	*	*met(c)	*	*met(c)	*
=1	=1	=1	=1	=1	=1	=1	=1	=1	=1	=1	=1	=1	=1	=1	=1
*2\right	*	*2\right	*	*2\right	*	*2\right	*2\right	*2\right	*2\right	*	*	*2\right	*	*2\right	*
!	!	!LO:TX:a:t=P:problem= partia zapisana z głosem basowym	!	!	!	!	!	!	!	!	!	!	!	!	!
!LO:TX:a:t=P:problem= partia zapisana z głosem basowym	!	!LO:TX:a:t=allo vivace	!	!LO:TX:a:t=P:problem= partia zapisana z głosem basowym	!	!	!	!	!LO:TX:a:t=Allo moderato	!	!	!LO:TX:a:t=andante	!	!LO:TX:a:t=andante	!
8D\L	.	8A/L 8f#	.	8A/L 8f# 8dd	.	1ryy	1ryy	1ryy	1r	.	.	8f#/L	.	8dd\L	.
8d\	.	16A/L 16f#	.	16.A/L 16.f# 16.dd	.	.	.	.	.	.	.	16.f#/L	.	16.dd\L	.
.	.	16A/JJ 16f#	.	.	.	.	.	.	.	.	.	.	.	.	.
.	.	.	.	32A/JJk 32f# 32dd	.	.	.	.	.	.	.	32f#/JJk	.	32dd\JJk	.
8A\	.	8A/L 8f#	.	8dd/L	.	.	.	.	.	.	.	8f#/L	.	8dd\L	.
8F#\J	.	8A/J 8f#	.	8dd/J	.	.	.	.	.	.	.	8f#/J	.	8dd\J	.
!	!LO:DY:b:t=p&colon;	!	!	!	!	!	!	!	!	!	!	!	!LO:DY:b:t=p&colon;	!	!LO:DY:b:t=p&colon;
[2D\	p	4A/ 4f#	.	4dd\	.	.	.	.	.	.	.	2f#/	p	2dd\	p
!	!	!	!	!LO:N:vis=16.	!LO:DY:b:t=p&colon;	!	!	!	!	!	!	!	!	!	!
.	.	.	.	8qqgg/	p	.	.	.	.	.	.	.	.	.	.
.	.	(8a/L	.	(16ff#\LL	.	.	.	.	.	.	.	.	.	.	.
.	.	.	.	32ee\L	.	.	.	.	.	.	.	.	.	.	.
.	.	.	.	32ff#\JJ)	.	.	.	.	.	.	.	.	.	.	.
!	!	!	!LO:DY:b:t=p&colon;	!	!	!	!	!	!	!	!	!	!	!	!
.	.	8f#/J)	p	8dd\J	.	.	.	.	.	.	.	.	.	.	.
=2	=2	=2	=2	=2	=2	=2	=2	=2	=2	=2	=2	=2	=2	=2	=2
!	!	!	!	!LO:N:vis=16.	!	!	!	!	!	!	!	!	!	!	!
.	.	.	.	8qqaa/	.	.	.	.	.	.	.	.	.	.	.
1D]	.	(8b/L	.	(16gg\LL	.	1ryy	1ryy	1ryy	1r	.	.	1d	.	1dd	.
.	.	.	.	32ff#\L	.	.	.	.	.	.	.	.	.	.	.
.	.	.	.	32gg\JJ)	.	.	.	.	.	.	.	.	.	.	.
.	.	8g/J)	.	8ee\J	.	.	.	.	.	.	.	.	.	.	.
!	!	!	!	!LO:N:vis=16.	!	!	!	!	!	!	!	!	!	!	!
.	.	.	.	8qqdd/	.	.	.	.	.	.	.	.	.	.	.
.	.	(8e/L	.	(16cc#\LL	.	.	.	.	.	.	.	.	.	.	.
.	.	.	.	32b\L	.	.	.	.	.	.	.	.	.	.	.
.	.	.	.	32cc#\JJ)	.	.	.	.	.	.	.	.	.	.	.
.	.	8g/J)	.	8a\J	.	.	.	.	.	.	.	.	.	.	.
.	.	(8f#/L	.	(32dd\LLL	.	.	.	.	.	.	.	.	.	.	.
.	.	.	.	32cc#\	.	.	.	.	.	.	.	.	.	.	.
.	.	.	.	32dd\	.	.	.	.	.	.	.	.	.	.	.
.	.	.	.	32ee\JJ	.	.	.	.	.	.	.	.	.	.	.
.	.	8d/J)	.	8ff#\J)	.	.	.	.	.	.	.	.	.	.	.
!	!	!	!	!LO:N:vis=16.	!	!	!	!	!	!	!	!	!	!	!
.	.	.	.	8qqgg/	.	.	.	.	.	.	.	.	.	.	.
.	.	(8a/L	.	(16ff#\LL	.	.	.	.	.	.	.	.	.	.	.
.	.	.	.	32ee\L	.	.	.	.	.	.	.	.	.	.	.
.	.	.	.	32ff#\JJ)	.	.	.	.	.	.	.	.	.	.	.
.	.	8f#/J)	.	8dd\J	.	.	.	.	.	.	.	.	.	.	.
=3	=3	=3	=3	=3	=3	=3	=3	=3	=3	=3	=3	=3	=3	=3	=3
!	!	!	!	!LO:N:vis=16.	!	!	!	!	!	!	!	!	!	!	!
.	.	.	.	8qqaa/	.	.	.	.	.	.	.	.	.	.	.
2D\	.	(8b/L	.	(16gg\LL	.	1ryy	1ryy	1ryy	1r	.	.	2d/	.	2dd\	.
.	.	.	.	32ff#\L	.	.	.	.	.	.	.	.	.	.	.
.	.	.	.	32gg\JJ)	.	.	.	.	.	.	.	.	.	.	.
.	.	8g/J)	.	8ee\J	.	.	.	.	.	.	.	.	.	.	.
!	!	!	!	!LO:N:vis=16.	!	!	!	!	!	!	!	!	!	!	!
.	.	.	.	8qqdd/	.	.	.	.	.	.	.	.	.	.	.
.	.	(8e/L	.	(16cc#\LL	.	.	.	.	.	.	.	.	.	.	.
.	.	.	.	32b\L	.	.	.	.	.	.	.	.	.	.	.
.	.	.	.	32cc#\JJ)	.	.	.	.	.	.	.	.	.	.	.
.	.	8g/J)	.	8a\J	.	.	.	.	.	.	.	.	.	.	.
!	!	!	!	!LO:LB:g=original	!	!	!	!	!	!	!	!	!	!	!
!	!LO:DY:b:t=f&colon;	!	!	!LO:TX:a:t=P:problem= mixed beam	!	!	!	!	!	!	!	!	!	!	!
8D\L	f	8f#/L	.	8d/L 8dd\	.	.	.	.	.	.	.	8r	.	8r	.
!	!	!	!	!	!	!	!	!	!	!	!	!	!LO:DY:b:t=f&colon;	!	!LO:DY:b:t=f&colon;
16.D\L	.	16.d/L	.	16d/L	.	.	.	.	.	.	.	16.d/LL	f	16.dd\LL	f
.	.	.	.	16d/JJ	.	.	.	.	.	.	.	.	.	.	.
32D\JJk	.	32d/JJk	.	.	.	.	.	.	.	.	.	32d/JJk	.	32dd\JJk	.
16D\LL	.	16.d/LL	.	16d/LL	.	.	.	.	.	.	.	16d/LL	.	16dd\LL	.
16F#\	.	.	.	16f#/	.	.	.	.	.	.	.	16f#/	.	16ff#\	.
.	.	32f#/K	.	.	.	.	.	.	.	.	.	.	.	.	.
16A\	.	16.a/	.	16a/	.	.	.	.	.	.	.	16a/	.	16aa\	.
16F#\JJ	.	.	.	16f#/JJ	.	.	.	.	.	.	.	16f#/JJ	.	16ff#\JJ	.
.	.	32f#/JJk	.	.	.	.	.	.	.	.	.	.	.	.	.
!	!	!	!	!	!	!	!	!	!	!	!	!LO:LB:g=original	!	!	!
=4	=4	=4	=4	=4	=4	=4	=4	=4	=4	=4	=4	=4	=4	=4	=4
8D\L	.	8d/L	.	8d/L	.	1ryy	1ryy	1ryy	1r	.	.	8d/L	.	8dd\L	.
16.D\L	.	16.d/L	.	16.d/L	.	.	.	.	.	.	.	16.d/L	.	16.dd\L	.
32D\JJk	.	32d/JJk	.	32d/JJk	.	.	.	.	.	.	.	32d/JJk	.	32dd\JJk	.
16D\LL	.	16d/LL	.	16d/LL	.	.	.	.	.	.	.	16d/LL	.	16dd\LL	.
16F#\	.	16f#/	.	16f#/	.	.	.	.	.	.	.	16f#/	.	16ff#\	.
16A\	.	16a/	.	16a/	.	.	.	.	.	.	.	16a/	.	16aa\	.
16F#\JJ	.	16f#/JJ	.	16f#/JJ	.	.	.	.	.	.	.	16f#/JJ	.	16ff#\JJ	.
!	!	!LO:LB:g=original	!	!	!	!	!	!	!	!	!	!	!	!	!
!	!	!LO:TX:a:t=P:problem= mixed beam	!	!LO:TX:a:t=P:problem= mixed beam	!	!	!	!	!	!	!	!	!	!LO:LB:g=original	!
8D\L	.	8d/L	.	8d/L	.	.	.	.	.	.	.	4d/	.	4dd\	.
16D\L	.	16.ddd\L	.	16ddd\L	.	.	.	.	.	.	.	.	.	.	.
16D\JJ	.	.	.	16ddd\JJ	.	.	.	.	.	.	.	.	.	.	.
.	.	32ddd\JJk	.	.	.	.	.	.	.	.	.	.	.	.	.
!	!	!	!	!	!	!	!	!	!	!	!	!LO:TX:a:t=P:problem= przed ćwierćnutą brak kreski taktowej	!	!LO:TX:a:t=P:problem= po ćwierćnucie brak kreski taktowej	!
8D\L	.	8ddd\L	.	8ddd\L	.	.	.	.	.	.	.	4r	.	4r	.
8D\J	.	8ddd\J	.	8ddd\J	.	.	.	.	.	.	.	.	.	.	.
!LO:LB:g=original	!	!	!	!	!	!	!	!	!	!	!	!	!	!	!
=5	=5	=5	=5	=5	=5	=5	=5	=5	=5	=5	=5	=5	=5	=5	=5
4BB/	.	4gg#X\	.	4ddd\	.	1ryy	1ryy	1ryy	4r	.	.	1r	.	1r	.
4ryy	.	4ryy	.	4ryy	.	.	.	.	8d\	Dum	.	.	.	.	.
.	.	.	.	.	.	.	.	.	8f#\	na-	.	.	.	.	.
2ryy	.	2ryy	.	2ryy	.	.	.	.	4d\	-tus	.	.	.	.	.
.	.	.	.	.	.	.	.	.	8r	.	.	.	.	.	.
.	.	.	.	.	.	.	.	.	16d\	eſ-	.	.	.	.	.
.	.	.	.	.	.	.	.	.	16c#\	-set	.	.	.	.	.
!	!	!	!	!	!	!	!	!	!LO:LB:g=original	!	!	!	!	!	!
=6	=6	=6	=6	=6	=6	=6	=6	=6	=6	=6	=6	=6	=6	=6	=6
4ryy	.	4ryy	.	4ryy	.	1ryy	1ryy	1ryy	8e\	Je-	.	1r	.	1r	.
.	.	.	.	.	.	.	.	.	8e\	-sus	.	.	.	.	.
4AA/	.	4a\ 4ee	.	4ccc#\	.	.	.	.	8r	.	.	.	.	.	.
.	.	.	.	.	.	.	.	.	8e\	in	.	.	.	.	.
2ryy	.	2ryy	.	2ryy	.	.	.	.	4c#\	bet-	.	.	.	.	.
.	.	.	.	.	.	.	.	.	8B\	-le-	.	.	.	.	.
.	.	.	.	.	.	.	.	.	8A\	-hem	.	.	.	.	.
=7	=7	=7	=7	=7	=7	=7	=7	=7	=7	=7	=7	=7	=7	=7	=7
4ryy	.	4ryy	.	4ryy	.	1ryy	1ryy	1ryy	8d\	Ju-	.	1r	.	1r	.
.	.	.	.	.	.	.	.	.	16d\	-de-	.	.	.	.	.
.	.	.	.	.	.	.	.	.	16d\	-a	.	.	.	.	.
4BB/	.	4d/	.	4g#X/	.	.	.	.	4r	.	.	.	.	.	.
!	!	!	!	!LO:LB:g=original	!	!	!	!	!	!	!	!	!	!	!
2ryy	.	2ryy	.	2ryy	.	.	.	.	4r	.	.	.	.	.	.
.	.	.	.	.	.	.	.	.	8d\	in	.	.	.	.	.
.	.	.	.	.	.	.	.	.	8G#X\	di-	He-	.	.	.	.
=8	=8	=8	=8	=8	=8	=8	=8	=8	=8	=8	=8	=8	=8	=8	=8
!LO:TX:a:t=P:problem= mixed beam	!LO:DY:b:t=f&colon;	!	!	!	!	!	!	!	!	!	!	!	!LO:DY:b:t=f&colon;	!	!
8AA/L	f	8c#/L 8e	.	8c#/L 8e 8a	.	1ryy	1ryy	1ryy	8B\	-e-	-ro-	8a/L	f	8a/L	.
8A\	.	16.c#/L 16.e	.	16.a/L	.	.	.	.	8A\	-bus	-dis	16a/L	.	16.a/L	.
.	.	.	.	.	.	.	.	.	.	.	.	16a/JJ	.	.	.
.	.	32c#/JJk 32e	.	32a/JJk	.	.	.	.	.	.	.	.	.	32a/JJk	.
8E\	.	8c#/L 8e	.	8a/L	.	.	.	.	4r	.	.	8a/L	.	8a/L	.
8C#\J	.	8c#/J 8e	.	8a/J	.	.	.	.	.	.	.	8a/J	.	8a/J	.
!	!LO:DY:b:t=p&colon;	!	!	!	!	!	!	!	!	!	!	!	!LO:DY:b:t=p&colon;	!	!LO:DY:b:t=p&colon;
2AA/	p	4c#/ 4e	.	4a/	.	.	.	.	2r	.	.	2a/	p	2a/	p
!	!	!	!	!LO:N:vis=16.	!LO:DY:b:t=p&colon;	!	!	!	!	!	!	!	!	!	!
.	.	.	.	8qqdd/	p	.	.	.	.	.	.	.	.	.	.
!	!	!	!LO:DY:b:t=p&colon;	!	!	!	!	!	!	!	!	!	!	!	!
.	.	(8e/L	p	(16cc#\LL	.	.	.	.	.	.	.	.	.	.	.
.	.	.	.	32b\L	.	.	.	.	.	.	.	.	.	.	.
.	.	.	.	32cc#\JJ)	.	.	.	.	.	.	.	.	.	.	.
.	.	8c#/J)	.	8a\J	.	.	.	.	.	.	.	.	.	.	.
=9	=9	=9	=9	=9	=9	=9	=9	=9	=9	=9	=9	=9	=9	=9	=9
!	!	!	!	!LO:N:vis=16.	!	!	!	!	!	!	!	!	!	!	!
.	.	.	.	8qqee/	.	.	.	.	.	.	.	.	.	.	.
1AA	.	(8f#/L	.	(16dd\LL	.	1ryy	1ryy	1ryy	1r	.	.	1a	.	1a	.
.	.	.	.	32cc#\L	.	.	.	.	.	.	.	.	.	.	.
.	.	.	.	32dd\JJ)	.	.	.	.	.	.	.	.	.	.	.
.	.	8d/J)	.	8b\J	.	.	.	.	.	.	.	.	.	.	.
!	!	!	!	!LO:N:vis=16.	!	!	!	!	!	!	!	!	!	!	!
.	.	.	.	8qqa/	.	.	.	.	.	.	.	.	.	.	.
.	.	(8B/L	.	(16g#X/LL	.	.	.	.	.	.	.	.	.	.	.
.	.	.	.	32f#/L	.	.	.	.	.	.	.	.	.	.	.
.	.	.	.	32g#/JJ	.	.	.	.	.	.	.	.	.	.	.
.	.	8d/J)	.	8e/J)	.	.	.	.	.	.	.	.	.	.	.
!	!	!LO:LB:g=original	!	!LO:N:vis=16.	!	!	!	!	!	!	!	!	!	!	!
.	.	(8e/L	.	(16a/LL	.	.	.	.	.	.	.	.	.	.	.
.	.	.	.	32g#/L	.	.	.	.	.	.	.	.	.	.	.
.	.	.	.	32a/JJ)	.	.	.	.	.	.	.	.	.	.	.
.	.	8c#/J)	.	8cc#/J	.	.	.	.	.	.	.	.	.	.	.
!	!	!	!	!LO:N:vis=16.	!	!	!	!	!	!	!	!	!	!	!
.	.	.	.	8qqdd/	.	.	.	.	.	.	.	.	.	.	.
.	.	(8e/L	.	(16cc#\LL	.	.	.	.	.	.	.	.	.	.	.
.	.	.	.	32b\L	.	.	.	.	.	.	.	.	.	.	.
.	.	.	.	32cc#\JJ)	.	.	.	.	.	.	.	.	.	.	.
.	.	8c#/J)	.	8a\J	.	.	.	.	.	.	.	.	.	.	.
=10	=10	=10	=10	=10	=10	=10	=10	=10	=10	=10	=10	=10	=10	=10	=10
!	!	!	!	!LO:N:vis=16.	!	!	!	!	!	!	!	!	!	!	!
.	.	.	.	8qqee/	.	.	.	.	.	.	.	.	.	.	.
2AA/	.	(8f#/L	.	16dd\LL	.	1ryy	1ryy	1ryy	1r	.	.	2a/	.	2a/	.
.	.	.	.	(32cc#\L	.	.	.	.	.	.	.	.	.	.	.
.	.	.	.	32dd\JJ	.	.	.	.	.	.	.	.	.	.	.
.	.	8d/J)	.	8b\J)	.	.	.	.	.	.	.	.	.	.	.
!	!	!	!	!LO:N:vis=16.	!	!	!	!	!	!	!	!	!	!	!
.	.	.	.	8qqa/	.	.	.	.	.	.	.	.	.	.	.
.	.	(8B/L	.	16g#X/LL	.	.	.	.	.	.	.	.	.	.	.
.	.	.	.	32f#/L	.	.	.	.	.	.	.	.	.	.	.
.	.	.	.	32g#/JJ	.	.	.	.	.	.	.	.	.	.	.
.	.	8d/J)	.	8e/J	.	.	.	.	.	.	.	.	.	.	.
!	!	!	!	!LO:TX:a:t=P:problem= mixed beam	!LO:DY:b:t=f&colon;	!	!	!	!	!	!	!	!	!	!
8AAn/L	.	8c#/L	.	8a\L	f	.	.	.	.	.	.	4a/	.	4a/	.
8BB/J	.	16A/L	.	16A/L	.	.	.	.	.	.	.	.	.	.	.
.	.	16B/JJ	.	16B/JJ	.	.	.	.	.	.	.	.	.	.	.
16C#/LL	.	16c#/LL	.	16c#/LL	.	.	.	.	.	.	.	4r	.	4r	.
16D/	.	16d/	.	16d/	.	.	.	.	.	.	.	.	.	.	.
16E/	.	16e/	.	16e/	.	.	.	.	.	.	.	.	.	.	.
16F#/JJ	.	16f#/JJ	.	16f#/JJ	.	.	.	.	.	.	.	.	.	.	.
!LO:LB:g=original	!	!	!	!LO:LB:g=original	!	!	!	!	!	!	!	!	!	!	!
=11	=11	=11	=11	=11	=11	=11	=11	=11	=11	=11	=11	=11	=11	=11	=11
4G\	.	4A/ 4e	.	4g/	.	1ryy	1ryy	1ryy	4r	.	.	1ryy	.	1ryy	.
4ryy	.	4r	.	4ryy	.	.	.	.	4r	.	.	.	.	.	.
2ryy	.	2r	.	2ryy	.	.	.	.	8r	.	.	.	.	.	.
.	.	.	.	.	.	.	.	.	8e\	Ec-	.	.	.	.	.
.	.	.	.	.	.	.	.	.	8e\	-ce	.	.	.	.	.
.	.	.	.	.	.	.	.	.	8e\	su-	.	.	.	.	.
=12	=12	=12	=12	=12	=12	=12	=12	=12	=12	=12	=12	=12	=12	=12	=12
!	!	!	!	!	!	!	!	!	!LO:LB:g=original	!	!	!	!	!	!
1ryy	.	1ryy	.	1ryy	.	1ryy	1ryy	1ryy	8c#\	-bi-	.	1ryy	.	1ryy	.
.	.	.	.	.	.	.	.	.	8c#\	-to	.	.	.	.	.
.	.	.	.	.	.	.	.	.	8c#\	fac-	.	.	.	.	.
.	.	.	.	.	.	.	.	.	8c#\	-ta	.	.	.	.	.
.	.	.	.	.	.	.	.	.	4c#\	est	.	.	.	.	.
.	.	.	.	.	.	.	.	.	(8B\	cum	.	.	.	.	.
.	.	.	.	.	.	.	.	.	8A\)	.	.	.	.	.	.
=13	=13	=13	=13	=13	=13	=13	=13	=13	=13	=13	=13	=13	=13	=13	=13
!LO:TX:a:t=P:problem= mixed beam	!	!LO:TX:a:t=P:problem= mixed beam	!	!LO:TX:a:t=P:problem= mixed beam	!	!	!	!	!	!	!	!	!	!	!
8d\L	.	8dd\L	.	8dd\L	.	1ryy	1ryy	1ryy	8d\	An-	.	1ryy	.	1ryy	.
16D/L	.	16d/L	.	16d/L	.	.	.	.	8d\	-ge-	.	.	.	.	.
16E/JJ	.	16e/JJ	.	16e/JJ	.	.	.	.	.	.	.	.	.	.	.
16F#\LL	.	16f#/LL	.	16f#/LL	.	.	.	.	8d\	-lo	.	.	.	.	.
16G\	.	16g/	.	16g/	.	.	.	.	.	.	.	.	.	.	.
16A\	.	16a/	.	16a/	.	.	.	.	8r	.	.	.	.	.	.
16B\JJ	.	16b/JJ	.	16b/JJ	.	.	.	.	.	.	.	.	.	.	.
8cn\L	.	8ccn\L	.	8ccn\L	.	.	.	.	2r	.	.	.	.	.	.
8A\	.	8a\	.	8a\	.	.	.	.	.	.	.	.	.	.	.
8F#\	.	8f#\	.	8f#\	.	.	.	.	.	.	.	.	.	.	.
8E\J	.	8e\J	.	8e\J	.	.	.	.	.	.	.	.	.	.	.
=14	=14	=14	=14	=14	=14	=14	=14	=14	=14	=14	=14	=14	=14	=14	=14
4D#X\	.	4d#X/	.	4d#X/	.	1ryy	1ryy	1ryy	4r	.	.	1ryy	.	1ryy	.
4ryy	.	4ryy	.	4ryy	.	.	.	.	4cn\	mul-	.	.	.	.	.
2ryy	.	2ryy	.	2ryy	.	.	.	.	8B\	-ti-	.	.	.	.	.
.	.	.	.	.	.	.	.	.	8A\	-tu-	.	.	.	.	.
.	.	.	.	.	.	.	.	.	8r	.	.	.	.	.	.
.	.	.	.	.	.	.	.	.	16A\	-do	.	.	.	.	.
.	.	.	.	.	.	.	.	.	16A\	mi-	.	.	.	.	.
!	!	!LO:LB:g=original	!	!	!	!	!	!	!	!	!	!	!	!	!
=15	=15	=15	=15	=15	=15	=15	=15	=15	=15	=15	=15	=15	=15	=15	=15
1r	.	1ryy	.	1ryy	.	1ryy	1ryy	1ryy	4A\	-li-	.	1ryy	.	1ryy	.
.	.	.	.	.	.	.	.	.	8G\	-tia	.	.	.	.	.
.	.	.	.	.	.	.	.	.	8A\	cae-	.	.	.	.	.
.	.	.	.	.	.	.	.	.	8F#\	-le-	.	.	.	.	.
.	.	.	.	.	.	.	.	.	8F#\	-stis	.	.	.	.	.
.	.	.	.	.	.	.	.	.	8r	.	.	.	.	.	.
.	.	.	.	.	.	.	.	.	16F#\	Lau-	et	.	.	.	.
.	.	.	.	.	.	.	.	.	16G\	.	.	.	.	.	.
!	!	!	!	!LO:LB:g=original	!	!	!	!	!	!	!	!	!	!	!
=16	=16	=16	=16	=16	=16	=16	=16	=16	=16	=16	=16	=16	=16	=16	=16
4ryy	.	2ryy	.	2ryy	.	1ryy	1ryy	1ryy	4.A\	-dan-	Di-	1ryy	.	1ryy	.
4ryy	.	.	.	.	.	.	.	.	.	.	.	.	.	.	.
.	.	.	.	.	.	.	.	.	8B\	-ti-	-cen-	.	.	.	.
4ryy	.	4ryy	.	4ryy	.	.	.	.	4G\	-um	-tium	.	.	.	.
!	!	!	!	!	!	!	!	!	!LO:LB:g=original	!	!	!	!	!	!
4E\	.	4g\	.	4b\	.	.	.	.	8r	.	.	.	.	.	.
.	.	.	.	.	.	.	.	.	16e\	glo-	.	.	.	.	.
.	.	.	.	.	.	.	.	.	16c#X\	-ria	.	.	.	.	.
=17	=17	=17	=17	=17	=17	=17	=17	=17	=17	=17	=17	=17	=17	=17	=17
2r	.	2ryy	.	2ryy	.	1ryy	1ryy	1ryy	8A\	in	.	1ryy	.	1ryy	.
.	.	.	.	.	.	.	.	.	8A\	ex-	.	.	.	.	.
.	.	.	.	.	.	.	.	.	8A\	-cel-	.	.	.	.	.
.	.	.	.	.	.	.	.	.	8A\	-sis	.	.	.	.	.
4ryy	.	4ryy	.	4ryy	.	.	.	.	8B\	De-	.	.	.	.	.
.	.	.	.	.	.	.	.	.	8F#\	-o	.	.	.	.	.
8E/	.	8ryy	.	4f#/	.	.	.	.	4r	.	.	.	.	.	.
8D\	.	8cn/	.	.	.	.	.	.	.	.	.	.	.	.	.
==	==	==	==	==	==	==	==	==	==	==	==	==	==	==	==
*-	*-	*-	*-	*-	*-	*-	*-	*-	*-	*-	*-	*-	*-	*-	*-
!!!system-decoration: [(s1,s2)]s3,s4,s5,s6[(s7,s8,s9)]
!!!ENC: Berenika Jozajtis
!!!END: 2020-10-13
!!!ENC: Urszula Świątek
!!!END: 2022-01-27
!!!YEC: Copyright 2022 Narodowy Instytut Fryderyka Chopina (https://polishscores.org)
!!!YEM: License CC-BY-4.0 (https://creativecommons.org/licenses/by/4.0)
